public/images/twitter.svg

<svg id="SvgjsSvg1011" width="288" height="288" xmlns="http://www.w3.org/2000/svg" version="1.1" xmlns:xlink="http://www.w3.org/1999/xlink" xmlns:svgjs="http://svgjs.com/svgjs"><defs id="SvgjsDefs1012"></defs><g id="SvgjsG1013" transform="matrix(0.9167,0,0,0.9167,11.989664705085772,11.997066547393814)"><svg xmlns="http://www.w3.org/2000/svg" data-name="Layer 1" viewBox="0 0 24 24" width="288" height="288"><path d="M22.99121,3.9502a.99942.99942,0,0,0-1.51074-.85938,7.47956,7.47956,0,0,1-1.873.793,5.15234,5.15234,0,0,0-3.374-1.24219,5.23238,5.23238,0,0,0-5.22363,5.06348A11.03194,11.03194,0,0,1,4.19629,3.78125,1.01154,1.01154,0,0,0,3.33887,3.416a.99852.99852,0,0,0-.78516.5,5.2755,5.2755,0,0,0-.24219,4.76855l-.00195.00195a1.0411,1.0411,0,0,0-.49512.88868,3.04174,3.04174,0,0,0,.02637.43945,5.1854,5.1854,0,0,0,1.56836,3.3125.99813.99813,0,0,0-.06641.76953,5.20436,5.20436,0,0,0,2.36231,2.92187,7.46464,7.46464,0,0,1-3.58985.44825.99975.99975,0,0,0-.665,1.833A12.94248,12.94248,0,0,0,8.46,21.36133,12.7878,12.7878,0,0,0,20.9248,11.998,12.82166,12.82166,0,0,0,21.46,8.35156c0-.06543,0-.13281-.001-.20019A5.76963,5.76963,0,0,0,22.99121,3.9502ZM19.68457,7.16211a.995.995,0,0,0-.2334.70215c.00977.165.00879.331.00879.4873a10.82371,10.82371,0,0,1-.4541,3.08106A10.68457,10.68457,0,0,1,8.46,19.36133a10.93791,10.93791,0,0,1-2.55078-.30078,9.47951,9.47951,0,0,0,2.94238-1.56348A1.00033,1.00033,0,0,0,8.25,15.71094a3.208,3.208,0,0,1-2.21387-.93457q.22413-.04248.44532-.10547a1.00026,1.00026,0,0,0-.08008-1.94336,3.19824,3.19824,0,0,1-2.25-1.72559,5.29929,5.29929,0,0,0,.54492.0459,1.02093,1.02093,0,0,0,.9834-.69629A.9998.9998,0,0,0,5.2793,9.21484,3.19559,3.19559,0,0,1,3.85547,6.542c0-.0664.00195-.13281.00586-.19824a13.01365,13.01365,0,0,0,8.209,3.47949,1.02046,1.02046,0,0,0,.81739-.3584,1.00037,1.00037,0,0,0,.206-.86816,3.15653,3.15653,0,0,1-.08691-.72852A3.23,3.23,0,0,1,16.2334,4.6416a3.18428,3.18428,0,0,1,2.34472,1.02051A.993.993,0,0,0,19.499,5.96a9.27073,9.27073,0,0,0,1.21192-.32226A6.68126,6.68126,0,0,1,19.68457,7.16211Z" fill="#e6dd3b" class="color000 svgShape"></path></svg></g></svg>

<svg width="288" height="288" xmlns="http://www.w3.org/2000/svg" xmlns:xlink="http://www.w3.org/1999/xlink" xmlns:svgjs="http://svgjs.com/svgjs"><svg xmlns="http://www.w3.org/2000/svg" data-name="Layer 1" viewBox="0 0 24 24" width="288" height="288" transform="translate(11.99 11.997) scale(.9167)"><path d="M22.991 3.95a1 1 0 0 0-1.51-.86 7.48 7.48 0 0 1-1.874.794 5.152 5.152 0 0 0-3.374-1.242 5.232 5.232 0 0 0-5.223 5.063 11.032 11.032 0 0 1-6.814-3.924 1.012 1.012 0 0 0-.857-.365.999.999 0 0 0-.785.5 5.276 5.276 0 0 0-.242 4.769l-.002.001a1.041 1.041 0 0 0-.496.89 3.042 3.042 0 0 0 .027.439 5.185 5.185 0 0 0 1.568 3.312.998.998 0 0 0-.066.77 5.204 5.204 0 0 0 2.362 2.922 7.465 7.465 0 0 1-3.59.448A1 1 0 0 0 1.45 19.3a12.942 12.942 0 0 0 7.01 2.061 12.788 12.788 0 0 0 12.465-9.363 12.822 12.822 0 0 0 .535-3.646l-.001-.2a5.77 5.77 0 0 0 1.532-4.202zm-3.306 3.212a.995.995 0 0 0-.234.702c.01.165.009.331.009.488a10.824 10.824 0 0 1-.454 3.08 10.685 10.685 0 0 1-10.546 7.93 10.938 10.938 0 0 1-2.55-.301 9.48 9.48 0 0 0 2.942-1.564 1 1 0 0 0-.602-1.786 3.208 3.208 0 0 1-2.214-.935q.224-.042.445-.105a1 1 0 0 0-.08-1.943 3.198 3.198 0 0 1-2.25-1.726 5.3 5.3 0 0 0 .545.046 1.02 1.02 0 0 0 .984-.696 1 1 0 0 0-.4-1.137 3.196 3.196 0 0 1-1.425-2.673c0-.066.002-.133.006-.198a13.014 13.014 0 0 0 8.21 3.48 1.02 1.02 0 0 0 .817-.36 1 1 0 0 0 .206-.867 3.157 3.157 0 0 1-.087-.729 3.23 3.23 0 0 1 3.226-3.226 3.184 3.184 0 0 1 2.345 1.02.993.993 0 0 0 .921.298 9.27 9.27 0 0 0 1.212-.322 6.681 6.681 0 0 1-1.026 1.524z" fill="#e6dd3b" class="color000 svgShape"/></svg></svg>
